app/dist/common/images/yunda-co-l.svg

<svg height="18" viewBox="0 0 18 18" width="18" xmlns="http://www.w3.org/2000/svg"><path d="m0 0h18v18h-18z" fill="#fccf00"/><path d="m8 7v-2h2v2h2v1h-1.51l.95 1.76-1.39.74-1.05-1.9-1.02 1.9-1.38-.74.95-1.76h-1.55v-1zm-3 0h-1v1h1zm8 0h1v1h-1zm-4 7a5 5 0 0 1 -4.9-4h1.49c.64 1.43 1.93 2.41 3.41 2.41s2.77-.98 3.41-2.41h1.49a5 5 0 0 1 -4.9 4z" fill="#3e3a39"/></svg>

<!-- by TradingView --><svg width="18" height="18" viewBox="0 0 18 18" xmlns="http://www.w3.org/2000/svg"><path fill="#FCCF00" d="M0 0h18v18H0z"/><path d="M8 7V5h2v2h2v1h-1.51l.95 1.76-1.39.74L9 8.6l-1.02 1.9-1.38-.74L7.55 8H6V7h2ZM5 7H4v1h1V7Zm8 0h1v1h-1V7Zm-4 7a5 5 0 0 1-4.9-4h1.49c.64 1.43 1.93 2.41 3.41 2.41 1.48 0 2.77-.98 3.41-2.41h1.49A5 5 0 0 1 9 14Z" fill="#3E3A39"/></svg>
